X:261
T: WENN ICH DEN WANDRER FRAGE
N: F0459
O: Europa, Mitteleuropa, Deutschland
R: Heimat - Lied, Heimweh
M: 4/4
L: 1/16
K: C
 | E,4E,3D,C,4E,4 | A,8G,4z4 |
G,8G,4G,4 | D8z4
G,4 | G,8E,4C4 | E8C4
A,4 | G,6G,2B,2A,2G,2F,2 | E,8z4
G,4 | G,8E,4C4 | E8C4
A,4 | G,6G,2G,4G,4 | G,12z4

@@@ Tune index: 5692
